X:123
T: Swingin' (sic) On A Gate
M: 2/4
L: 1/16
K: G
|: "G" (vgedB) G2AB | "C" (cAB)(G AG)EG | "G" (DGBd g2) g2 | "D" (fga)(g "D7" fd)ef |
   "G"  (gedB) G2AB | "C" (cAB)(G AG)EG | "Am" (cAB)(G AG)EG | "D" (DG2)F "G" G2G2 :|
|: "G" (gfg)(aba)gf | "Em" (gfe)(d B2)AG | "Am" (EA2)(B cBAG) | (EA2)(B "D7" cd)ef |
   "G" g2(ga ba)(gf | "Em" gf)(ed ed)cB | "Am" (cA)(BG) (AG)(EG) | "D" (DG2)F "G" G2G2 :|

